packages/ui-icons/svg/Line/eportfolio.svg

<svg viewBox="0 0 1920 1920" version="1.1" xmlns="http://www.w3.org/2000/svg">
    <path d="M1653.33333,1707 L266.666667,1707 C178.453333,1707 106.666667,1635.21333 106.666667,1547 L106.666667,960.333333 L640,960.333333 L640,1173.66667 L1280,1173.66667 L1280,960.333333 L1813.33333,960.333333 L1813.33333,1547 C1813.33333,1635.21333 1741.54667,1707 1653.33333,1707 L1653.33333,1707 Z M746.666667,1067 L1173.33333,1067 L1173.33333,853.666667 L746.666667,853.666667 L746.666667,1067 Z M266.666667,533.666667 L640,533.666667 L1280,533.666667 L1653.33333,533.666667 C1741.54667,533.666667 1813.33333,605.453333 1813.33333,693.666667 L1813.33333,853.666667 L1280,853.666667 L1280,747 L640,747 L640,853.666667 L106.666667,853.666667 L106.666667,693.666667 C106.666667,605.453333 178.453333,533.666667 266.666667,533.666667 L266.666667,533.666667 Z M746.666667,267 C746.666667,237.56 770.56,213.666667 800,213.666667 L1120,213.666667 C1149.44,213.666667 1173.33333,237.56 1173.33333,267 L1173.33333,427 L746.666667,427 L746.666667,267 Z M1653.33333,427 L1280,427 L1280,267 C1280,178.786667 1208.21333,107 1120,107 L800,107 C711.786667,107 640,178.786667 640,267 L640,427 L266.666667,427 C119.68,427 0,546.68 0,693.666667 L0,1547 C0,1693.98667 119.68,1813.66667 266.666667,1813.66667 L1653.33333,1813.66667 C1800.32,1813.66667 1920,1693.98667 1920,1547 L1920,693.666667 C1920,546.68 1800.32,427 1653.33333,427 L1653.33333,427 Z" stroke="none" stroke-width="1" fill-rule="evenodd"/>
</svg>

<svg viewBox="0 0 1920 1920" xmlns="http://www.w3.org/2000/svg">
    <path d="M1653.333 1707H266.667c-88.214 0-160-71.787-160-160V960.333H640v213.334h640V960.333h533.333V1547c0 88.213-71.786 160-160 160Zm-906.666-640h426.666V853.667H746.667V1067Zm-480-533.333h1386.666c88.214 0 160 71.786 160 160v160H1280V747H640v106.667H106.667v-160c0-88.214 71.786-160 160-160Zm480-266.667c0-29.44 23.893-53.333 53.333-53.333h320c29.44 0 53.333 23.893 53.333 53.333v160H746.667V267Zm906.666 160H1280V267c0-88.213-71.787-160-160-160H800c-88.213 0-160 71.787-160 160v160H266.667C119.68 427 0 546.68 0 693.667V1547c0 146.987 119.68 266.667 266.667 266.667h1386.666c146.987 0 266.667-119.68 266.667-266.667V693.667C1920 546.68 1800.32 427 1653.333 427Z" fill-rule="evenodd"/>
</svg>
